**kern
*staff1
=1-
*clefG2
*k[]
*B-:
*M4/4
1r
!!Intro
=2
1r
=3
1r
=4
2r
4r
8r
*>head1
{8F/
=5
8B-/L
!!Head
8d/
8c/
8B-/J
8e-/L
8c#/
8d/
8f/J}
=6
4r
8r
{8e-/
8r
8f/
4e-/
=7
8r
8d/L
8e-/
8d/J
8c/L
8A/
8B-/
8d/J
=8
8c/L
8G/
8B-/
8A/J}
4r
8r
{[8B-/
=9
4B-/]
8G/L
8B-/J
8d/L
8B-/J
8r
[8e/
=10
8e/L]
[8e-/
8e-/]
[8G-/J
8G-/L]
8B-/
8c/
8d/J
=11
4f/
8r
8B/}
8r
{4a-/
8f/
=12
8g/L
8e-/
8B-/
8G/J
8d/L
8f/J}
8r
8F/
=13
12e-/L
12f/
12e-/J
8d/L
8f/J
8r
8d/L
8e-/
8G/J
=14:|!
8c/L
8G/
8B-/
8c/J
4r
8r
{[8f#/
=15
4f#/]
8g/L
8g#/J
8a/L
8f#/
8gn/
8a/J
=16||
8f#/L
8d/J}
4r
4r
8r
{8e/
=17
8f/L
8e/
8d/
8B/J
8e/L
8d/
8B/
8A/J}
=18
4r
8r
{[8a/
8a/]
4a/
[8a/
=19
8a/L]
8g/
8e/
[8d/J
4.d/]
8G/
=20
24c/LL
24d/
24c/JJ
8G/L
8B-/
8c/J}
4r
8r
{[8e-/
=21
4e-/]
8d/L
8c/J
8B/L
8d/
8c/
8G/J
=22
4c/
8B-/L
8A/J}
4r
8r
{8F/
=23
8B-/L
8d/
8c/
8B-/J
8e-/L
8c#/
8d/
8f/J}
=24||
4r
8r
{8e-/
8r
8f/
4e-/
=25
8r
8d/L
8e-/
8d/J
8c/L
8A/
8B-/
8d/J
=26
8c/L
8G/
8B-/
8A/J}
4r
8r
{[8B-/
=27
4B-/]
8G/L
8B-/J
8d/L
8B-/J
8r
[8e/
=28
8e/L]
[8e-/
8e-/]
[8G-/J
8G-/L]
8B-/
8c/
8d/J
=29
12e-/L
12f/
12e-/J
8d/L
8f/J
8r
8d/L
8e-/
8G/J
=30
8c/L
8B-/
8A/
8B-/J}
2r
=31
!!A1	Chorus 1
4r
*>solo1
{8f/L
16g/L
16a/JJ
12b-\L
12cc\
12cc#\J
8dd\L
8b-\J
=32||
8cc\L
8b-\
8a\
8b-\J
8cc/L
8f/J}
4r
=33
4r
8r
{8c#/
12d/L
12f/
12a/J
8b-/L
8g/J
=34
8e-/L
8c/J
12b-\L
12cc\
12b-\J
8a/L
8g/
8d/
8e-/J
=35
8f/L
8g/
8a-/
8g/J
8f/L
8e-/
8d/
8c/J
=36
8B-/L
8A/
8A-/
8c/J
8b-/L
8g/
8e-/
8c/J
=37
8b-/L
8g-/
8e-/
8A/J
8B-/L
8e-/
8c/
8c#/J
=38
2d/}
4r
8r
{8f/
=39
8b-/L
8f/
8d/
8B-/J
8F/L
8B-/
8d/
8f/J
=40||
8b-/L
8g-/
8d/
8B-/J
8G-/L
8B-/
8d/
8g-/J
=41
8b-/L
8g/
8e-/
8c/J
8d/L
8e-/J
4f/}
=42
4r
8r
{8f/
16g\LL
16b-\
16dd\
16ff\JJ
4ee-\}
=43
2r
{12dd\L
12dd#\
12ee\J
8ff\L
8ee-\J
=44
8dd\L
8cc\
8b-\
8a-\J
8g\L
8b-\
8cc\
8dd\J
=45
8ff\L
8ee-\
8dd\
8cc\J
12a/L
12a#/
12b/J
8cc/L
8an/J
=46
8b-/L
[8f/J
4f/]}
2r
=47
!!B1
{12ee\L
12dd\
12cc\J
8b/L
8a/J
8g/L
8f#/
8e/
8B/J
=48||
12c/L
12e-/
12g-/J
8b-/L
8g-/J
8e-/L
8c/
8a/
8gn/J
=49
8f/L
8e/J
12d/L
12d-/
12c/J
4B/}
{8ee-\L
8b\J
=50
8a-/L
8f/
8e-/
8B/J
8e-/L
8en/
8g/
8an/J
=51
8b-\L
8cc\
8dd\
8g#\J
8a/L
8cc/
8b-/
8a/J
=52
8g/L
8f/
8e/
8d/J
8a-/L
8e/
8d-/
8B/J
=53
4g/
16e-/LL
16d/
16c/
[16B/JJ
8B/L]
8g/
8e-/
8B/J
=54
8B-/L
8A-/
8An/
8g-/J
8e-/L
8en/J
4f/}
=55
!!A2
8r
{8e-/L
8c/
8c#/J
8d/L
8B-/
8G/
8A/J
=56||
8c/L
8B-/J
16A/LL
16c/
16e-/
16g-/JJ
8f/L
8c#/J
12d/L
12f/
12a/J
=57
4b-\
4f/
2g/
=58
2r
4r
12f/L
12g/
12a/J
=59
12b-\L
12cc\
12cc#\J
4dd\
4b-\
4f/
=60
2g/}
2r
=61
2r
2r
=62
4r
*>solo2
{2.dd\
=63
!!A3	Chorus 2
8f\L
8b-\
8dd\
8gg\J
4.ff\
[8ee-\
=64||
4ee-\]
4dd\}
4r
8r
{8d/
=65
8e/L
8g/
8b-/
8dd/J
8cc\L
8cc\
8cc\
[8a\J
=66
4a/]
4g/}
4r
{8gg\L
8gg-\J
=67
8ff\L
8ee-\
8dd\
8cc\J
8b-/L
8a/
8a-/
8cc/J
=68
8g\L
8b-\
8cc\
8dd\J
8ff\
8r
8ff\L
8ee-\J
=69
8r
8ee-\
2cc\}
4r
=70
2r
4r
{8cc#\L
8dd\J
=71
8gg\L
8ff\
8a\
8b-\J
8ee-/L
8dd/
8e/
8f/J
=72||
8cc/L
8b-/
8c#/
8d/J
8g/L
8f/
8A/
8B-/J
=73
8d/L
8e-/
8d/
8c/J
8B/L
8a-/
8g/
8f/J
=74
8e-/L
8G/
8B-/
8d/J
8c/L
8B-/J
16A/LL
16c/
16e-/
16g-/JJ
=75
8f/L
8c#/J
12d/L
12f/
12a/J
8cc\L
8b\
8b-\
8a-\J
=76
8g/L
8f/
8e-/
8c/J
8b-/L
8g-/
8e-/
8A/J
=77
8B-/L
8e-/
8c/
8c#/J
2d/}
=78
2r
6r
{6dd\
6ee\
=79
4gg\
!!B2
4gg-\
6dd\
6ee\
6ggn\
=80||
[4ff#\
8ff#\L]
8ee\J
4dd\
8b/L
8d/J
=81
4b-\
2b-\
12ff\L
12dd-\
12b-\J
=82
8e-\L
8d\
8c\
8B-
8A-\
8r
8r
8r
=83
8D/}
8r
8r
{8f#/
12g\L
12b-\
12dd\J
8ff\L
8dd\J
=84
8ee-\L
8een\
8cc\
8cc#\J
8dd\L
8ccn\
8b-\
8a\J
=85
8g/L
8f/J
4e-/}
2r
=86
1r
=87
2r
!!A4
{12f/L
12g/
12a/J
12b-\L
12cc\
12cc#\J
=88||
4dd\
8f/L
8g/J}
2r
=89
2r
4r
{8f/L
8f#/J
=90
8g\L
8ee-\
8cc\
8cc#\J
8dd\L
8cc#\
8ccn\
8b\J
=91
8b-/L
8a/
8a-/
8c/J
8b-/L
8a-/
8g/
8f/J
=92
8e-/L
8A/
8B-/
8c/J
8d-/L
8B-/
8G/
8A/J
=93
8c/L
8B-/
8A/
8B-/J
8d/L
[8f/J
4f/]}
=94
2r
4r
8r
*>solo3
{8d/
=95
12f/L
!!A5	Chorus 3
12g/
12f/J
8d/L
8f/J
12b-\L
12cc\
12b-\J
8f/L
8b-/J
=96||
8dd\L
8cc\
8b-\
8a\J
8cc/L
8b-/
8a/
8g/J
=97
12f/L
12g/
12f/J
8d/L
8f/J
12b-\L
12cc\
12b-\J
8f/L
8b-/J
=98
8dd\L
8cc\
8b-\
8a\J
8cc/L
8b-/
8a/
8g/J
=99
8f/L
8e-/
8d/
8c/J
4cc\}
4r
=100
8r
{16cc\LL
16b\J
8b-\
8a-\J
8g\L
8b-\
8cc\
8dd\J
=101
8ff\L
8ee-\
8dd\
8cc\J
12a/L
12a#/
12b/J
8cc/L
8a#/J
=102
8b-/L
8g/
8e-/
8c/J
8d-/L
8a/
8g/
8g-/J
=103
8f/L
16e/L
16e-/J
8d/
[8e-/J
8e-/L]
16d/L
16d-/J
8.c/
[16g-/Jk
=104||
4g-/]
32f/LLL
32e/JJ
8.e-/J
8.r
[16en/LK
8e/]
16e-/L
16d/JJ
=105
4d-/}
4r
4r
8r
{8dn/
=106
4e-/
8f/L
8dd/J
4e-/
4r
=107
4r
8cc\L
8b\J
8b-/L
8a/
8a-/
8cc/J
=108
8g\L
8b-\
8cc\
8dd\J
8ff\L
8ee\
8ee-\J}
8r
=109
4r
8r
{[8a/
8a\L]
16b-\L
16bn\J
8cc\
8a\J
=110
8b-/L
8f/J}
4r
4r
8r
{8dd\
=111
8cc#\L
!!B3
8dd\J
12ee-\L
12dd\
12dd-\J
8ccn\L
8b\
8b-\
8a\J
=112||
8g/L
8f#/
8e/
8d/J
8b-/L
8g-/
8e-/
8c/J
=113
4a/}
4r
{12ee\L
12ff\
12ff#\J
12gg\L
12ff#\
12ffn\J
=114
8ee\L
8ee-\
8dd\
8cc\J
8b/L
8a/
8g/
8f/J
=115
4e/}
8r
{8f#/
12g\L
12b-\
12dd\J
8ff\L
8dd\J
=116
8ee-\L
8een\
8cc\
8cc#\J
8dd\L
8ccn\
8b-\
8a\J
=117
8g/L
8f/J
12e-/L
12g/
12b-/J
8dd\L
8dd-\
8cc\
8bn\J
=118
8b-/L
8g/
8e-/
8c/J
8a-/L
8g-/
8B/
8A/J
=119
[1B-
!!A6
=120||
4.B-/]
[8Bn/
6B/]
6d-/
[6g-/
=121
8g-/L]
[8f/J
2.f/]}
=122
4r
8r
{8B-/
6Bn/
6e-/
6g-/
=123
[2.f/
8f/L]
[8e-/J
=124
2e-/_
8e-/L]
[8d-/
8d-/]
8B-/J
=125
8d/L
8f/J}
4r
4r
8r
{8d/
=126
8e-/L
8f/
8g/
8a/J
8b-/L
8f/
8d/
8B-/J
=127
8f#/L
8g/
8e-/
8c/J
8f#/L
[8c/J
4c/_
=128||
4c/]}
4r
2r
==
*-
